X:1
T:Title
%%score { 1 | 2 }
L:1/8
M:3/4
K:Eb
V:1 treble nm="Grand Piano"
V:2 bass 
V:1
 z2 z[Q:1/4=82] G GG | B2 G2 [CEA][B,DF] | G4 B2 | AA =A2 A2 |[M:3/8] [DB]3 | BBB | %6
[M:3/4] [Ec]2 [DB]2 [EB][FA] | [EG]4 [Ec]2 | [EB][EB] [DF]2 [FA]2 |[M:3/8] [EG]3 |] %10
V:2
 z2 z [E,B,E] [E,B,E][E,B,E] | [G,B,E]2 [E,B,E]2 A,,B,, | [E,B,E]4 [E,_DE]2 | %3
 [A,CE][A,CE] [F,CE]2 [F,CE]2 |[M:3/8] [B,,B,]3 | [E,G,E][E,G,E][E,G,E] | %6
[M:3/4] [A,,A,]2 [B,,F,]2 [C,B,][D,B,] | [E,B,]4 [A,,A,]2 | [B,,G,][B,,G,] [B,,B,]2 [B,,B,]2 | %9
[M:3/8] [E,B,]3 |] %10

